Flat-Remix-Dark/apps/scalable/recipes.svg

<svg xmlns="http://www.w3.org/2000/svg" xmlns:xlink="http://www.w3.org/1999/xlink" width="384pt" height="384pt" version="1.1" viewBox="0 0 384 384"> <defs> <filter id="alpha" width="100%" height="100%" x="0%" y="0%" filterUnits="objectBoundingBox"> <feColorMatrix in="SourceGraphic" type="matrix" values="0 0 0 0 1 0 0 0 0 1 0 0 0 0 1 0 0 0 1 0"/> </filter> <mask id="mask1"> <g filter="url(#alpha)"> <rect width="384" height="384" x="0" y="0" style="fill:rgb(0%,0%,0%);fill-opacity:0.2"/> </g> </mask> <clipPath id="clip2"> <rect width="384" height="384" x="0" y="0"/> </clipPath> <g id="surface8" clip-path="url(#clip2)"> <path style="fill:rgb(0%,0%,0%)" d="M 156 234 L 156 314 C 156 322.863281 161.351562 330 168 330 L 180 330 C 186.648438 330 192 322.863281 192 314 L 192 234 Z M 156 234"/> </g> <mask id="mask2"> <g filter="url(#alpha)"> <rect width="384" height="384" x="0" y="0" style="fill:rgb(0%,0%,0%);fill-opacity:0.2"/> </g> </mask> <clipPath id="clip3"> <rect width="384" height="384" x="0" y="0"/> </clipPath> <g id="surface11" clip-path="url(#clip3)"> <path style="fill:rgb(0%,0%,0%)" d="M 156 66 C 156 66 240 112.457031 240 234 L 156 234 Z M 156 66"/> </g> <mask id="mask3"> <g filter="url(#alpha)"> <rect width="384" height="384" x="0" y="0" style="fill:rgb(0%,0%,0%);fill-opacity:0.2"/> </g> </mask> <clipPath id="clip4"> <rect width="384" height="384" x="0" y="0"/> </clipPath> <g id="surface14" clip-path="url(#clip4)"> <path style="fill:rgb(0%,0%,0%)" d="M 180 300 C 180 303.3125 177.3125 306 174 306 C 170.6875 306 168 303.3125 168 300 C 168 296.6875 170.6875 294 174 294 C 177.3125 294 180 296.6875 180 300 Z M 180 300"/> </g> <mask id="mask4"> <g filter="url(#alpha)"> <rect width="384" height="384" x="0" y="0" style="fill:rgb(0%,0%,0%);fill-opacity:0.2"/> </g> </mask> <clipPath id="clip5"> <rect width="384" height="384" x="0" y="0"/> </clipPath> <g id="surface17" clip-path="url(#clip5)"> <path style="fill:rgb(0%,0%,0%)" d="M 180 264 C 180 267.3125 177.3125 270 174 270 C 170.6875 270 168 267.3125 168 264 C 168 260.6875 170.6875 258 174 258 C 177.3125 258 180 260.6875 180 264 Z M 180 264"/> </g> <mask id="mask5"> <g filter="url(#alpha)"> <rect width="384" height="384" x="0" y="0" style="fill:rgb(0%,0%,0%);fill-opacity:0.2"/> </g> </mask> <clipPath id="clip6"> <rect width="384" height="384" x="0" y="0"/> </clipPath> <g id="surface20" clip-path="url(#clip6)"> <path style="fill:rgb(0%,0%,0%)" d="M 384 306 C 384 345.765625 351.765625 378 312 378 C 272.234375 378 240 345.765625 240 306 C 240 266.234375 272.234375 234 312 234 C 351.765625 234 384 266.234375 384 306 Z M 384 306"/> </g> <mask id="mask6"> <g filter="url(#alpha)"> <rect width="384" height="384" x="0" y="0" style="fill:rgb(0%,0%,0%);fill-opacity:0.101961"/> </g> </mask> <clipPath id="clip7"> <rect width="384" height="384" x="0" y="0"/> </clipPath> <g id="surface23" clip-path="url(#clip7)"> <path style="fill-rule:evenodd;fill:rgb(0%,0%,0%)" d="M 296 232.003906 L 296 241.894531 C 275.1875 246.652344 257.558594 260.398438 247.875 279.425781 C 253.277344 278.480469 264.445312 275.667969 281.328125 266.457031 C 288.03125 262.800781 293.792969 259.558594 296 256.003906 C 276.863281 280.003906 297.617188 283.523438 308 296.003906 C 308 296.003906 332.328125 280.003906 312 256.003906 C 336 267.6875 360 264.003906 360 264.003906 C 360 264.003906 360.128906 261.652344 359.96875 258.410156 C 346.785156 246.585938 329.710938 240.03125 312 240.003906 L 312 232.003906 Z M 296 232.003906"/> </g> </defs> <g> <use width="100%" height="100%" x="0" y="0" mask="url(#mask1)" transform="matrix(0.84991831,0.65870371,-0.65870371,0.84991831,131.42384,-130.50289)" xlink:href="#surface8"/> <use width="100%" height="100%" x="0" y="0" mask="url(#mask2)" transform="matrix(0.56544457,0.43823087,-0.65870371,0.84991831,175.80175,-96.109124)" xlink:href="#surface11"/> <path d="m 113.82665,166.03627 -52.696292,67.99346 c -5.838274,7.53306 -5.990869,17.12379 -0.340239,21.50313 l 10.19902,7.90445 c 5.650635,4.37935 14.900006,1.83881 20.738279,-5.69425 L 144.42371,189.7496 Z m 0,0"/> <use width="100%" height="100%" x="0" y="0" mask="url(#mask3)" transform="matrix(0.84991831,0.65870371,-0.65870371,0.84991831,131.42384,-130.50289)" xlink:href="#surface14"/> <use width="100%" height="100%" x="0" y="0" mask="url(#mask4)" transform="matrix(0.84991831,0.65870371,-0.65870371,0.84991831,131.42384,-130.50289)" xlink:href="#surface17"/> <path style="fill:rgb(100.000%,100.000%,100.000%)" d="m 224.48888,23.24999 c 0,0 16.89592,76.296079 -63.16488,179.59767 l -47.49735,-36.81139 z m 0,0"/> <path style="fill:rgb(80.000%,80.000%,80.000%)" d="m 114.46358,207.34271 c -2.18196,2.81535 -6.23638,3.32924 -9.05173,1.14728 -2.81536,-2.18196 -3.32925,-6.23637 -1.14729,-9.05173 2.18196,-2.81535 6.23638,-3.32925 9.05173,-1.14729 2.81535,2.18196 3.32924,6.23638 1.14729,9.05174 z m 0,0"/> <path style="fill:rgb(80.000%,80.000%,80.000%)" d="m 90.750248,237.93977 c -2.181959,2.81534 -6.236382,3.32924 -9.051736,1.14728 -2.815354,-2.18196 -3.329243,-6.23637 -1.147284,-9.05173 2.181953,-2.81535 6.236375,-3.32925 9.051729,-1.14729 2.815354,2.18196 3.329244,6.23638 1.147291,9.05174 z m 0,0"/> <use width="100%" height="100%" x="0" y="0" mask="url(#mask5)" transform="matrix(1.0752915,0,0,1.0752915,-81.609631,-45.710178)" xlink:href="#surface20"/> <path style="fill:rgb(83.137%,9.803%,9.803%)" d="m 331.30228,276.87726 c 0,42.75962 -34.66135,77.42098 -77.42099,77.42098 -42.75964,0 -77.42097,-34.66136 -77.42097,-77.42098 0,-42.75965 34.66133,-77.42099 77.42097,-77.42099 42.75964,0 77.42099,34.66134 77.42099,77.42099 z m 0,0"/> <use width="100%" height="100%" x="0" y="0" mask="url(#mask6)" transform="matrix(1.0752915,0,0,1.0752915,-81.609631,-45.710178)" xlink:href="#surface23"/> <path style="fill:rgb(3.921%,50.588%,29.411%);fill-rule:evenodd" d="m 236.67663,190.85394 v 10.6353 c -22.3795,5.11605 -41.33572,19.8971 -51.74839,40.35703 5.80908,-1.01649 17.8179,-4.04074 35.97185,-13.94519 7.20782,-3.93153 13.40334,-7.41782 15.77654,-11.24015 -20.57755,25.807 1.73896,29.59152 12.9035,43.01166 0,0 26.15982,-17.20466 4.30116,-43.01166 25.807,12.56327 51.614,8.60234 51.614,8.60234 0,0 0.13862,-2.52861 -0.0335,-6.01492 -14.17625,-12.71448 -32.53602,-19.76269 -51.58045,-19.79208 v -8.60233 z m 0,0"/> </g> </svg>

<svg width="512" height="512" version="1.1" viewBox="0 0 384 384" xmlns="http://www.w3.org/2000/svg" xmlns:xlink="http://www.w3.org/1999/xlink"><defs><filter id="alpha" x="0%" y="0%" width="100%" height="100%"><feColorMatrix in="SourceGraphic" values="0 0 0 0 1 0 0 0 0 1 0 0 0 0 1 0 0 0 1 0"/></filter><mask id="l"><g filter="url(#alpha)"><rect width="384" height="384" fill-opacity=".2"/></g></mask><clipPath id="r"><rect width="384" height="384"/></clipPath><g id="a" clip-path="url(#r)"><path d="m156 234v80c0 8.8633 5.3516 16 12 16h12c6.6484 0 12-7.1367 12-16v-80z"/></g><mask id="k"><g filter="url(#alpha)"><rect width="384" height="384" fill-opacity=".2"/></g></mask><clipPath id="q"><rect width="384" height="384"/></clipPath><g id="f" clip-path="url(#q)"><path d="m156 66s84 46.457 84 168h-84z"/></g><mask id="j"><g filter="url(#alpha)"><rect width="384" height="384" fill-opacity=".2"/></g></mask><clipPath id="p"><rect width="384" height="384"/></clipPath><g id="e" clip-path="url(#p)"><path d="m180 300c0 3.3125-2.6875 6-6 6s-6-2.6875-6-6 2.6875-6 6-6 6 2.6875 6 6z"/></g><mask id="i"><g filter="url(#alpha)"><rect width="384" height="384" fill-opacity=".2"/></g></mask><clipPath id="o"><rect width="384" height="384"/></clipPath><g id="d" clip-path="url(#o)"><path d="m180 264c0 3.3125-2.6875 6-6 6s-6-2.6875-6-6 2.6875-6 6-6 6 2.6875 6 6z"/></g><mask id="h"><g filter="url(#alpha)"><rect width="384" height="384" fill-opacity=".2"/></g></mask><clipPath id="n"><rect width="384" height="384"/></clipPath><g id="c" clip-path="url(#n)"><path d="m384 306c0 39.766-32.234 72-72 72s-72-32.234-72-72 32.234-72 72-72 72 32.234 72 72z"/></g><mask id="g"><g filter="url(#alpha)"><rect width="384" height="384" fill-opacity=".10196"/></g></mask><clipPath id="m"><rect width="384" height="384"/></clipPath><g id="b" clip-path="url(#m)"><path d="m296 232v9.8906c-20.812 4.7578-38.441 18.504-48.125 37.531 5.4023-0.94531 16.57-3.7578 33.453-12.969 6.7031-3.6562 12.465-6.8984 14.672-10.453-19.137 24 1.6172 27.52 12 40 0 0 24.328-16 4-40 24 11.684 48 8 48 8s0.12891-2.3516-0.03125-5.5938c-13.184-11.824-30.258-18.379-47.969-18.406v-8z" fill-rule="evenodd"/></g></defs><path d="m224.49 23.25s16.896 76.296-63.165 179.6l-47.497-36.811z" fill="#fff" opacity=".2" stroke="#000" stroke-width="7.5"/><use transform="matrix(.84992 .6587 -.6587 .84992 131.42 -130.5)" width="100%" height="100%" mask="url(#l)" xlink:href="#a"/><use transform="matrix(.56544 .43823 -.6587 .84992 175.8 -96.109)" width="100%" height="100%" mask="url(#k)" xlink:href="#f"/><path d="m113.83 166.04-52.696 67.993c-5.8383 7.5331-5.9909 17.124-0.34024 21.503l10.199 7.9044c5.6506 4.3794 14.9 1.8388 20.738-5.6942l52.696-67.993z"/><use transform="matrix(.84992 .6587 -.6587 .84992 131.42 -130.5)" width="100%" height="100%" mask="url(#j)" xlink:href="#e"/><use transform="matrix(.84992 .6587 -.6587 .84992 131.42 -130.5)" width="100%" height="100%" mask="url(#i)" xlink:href="#d"/><path d="m224.49 23.25s16.896 76.296-63.165 179.6l-47.497-36.811z" fill="#fff"/><path d="m114.46 207.34c-2.182 2.8154-6.2364 3.3292-9.0517 1.1473-2.8154-2.182-3.3292-6.2364-1.1473-9.0517 2.182-2.8154 6.2364-3.3292 9.0517-1.1473s3.3292 6.2364 1.1473 9.0517z" fill="#ccc"/><path d="m90.75 237.94c-2.182 2.8153-6.2364 3.3292-9.0517 1.1473s-3.3292-6.2364-1.1473-9.0517c2.182-2.8154 6.2364-3.3292 9.0517-1.1473s3.3292 6.2364 1.1473 9.0517z" fill="#ccc"/><use transform="matrix(1.0753 0 0 1.0753 -81.61 -45.71)" width="100%" height="100%" mask="url(#h)" xlink:href="#c"/><path d="m331.3 276.88c0 42.76-34.661 77.421-77.421 77.421s-77.421-34.661-77.421-77.421c0-42.76 34.661-77.421 77.421-77.421s77.421 34.661 77.421 77.421z" fill="#d31818"/><use transform="matrix(1.0753 0 0 1.0753 -81.61 -45.71)" width="100%" height="100%" mask="url(#g)" xlink:href="#b"/><path d="m236.68 190.85v10.635c-22.38 5.116-41.336 19.897-51.748 40.357 5.8091-1.0165 17.818-4.0407 35.972-13.945 7.2078-3.9315 13.403-7.4178 15.777-11.24-20.578 25.807 1.739 29.592 12.904 43.012 0 0 26.16-17.205 4.3012-43.012 25.807 12.563 51.614 8.6023 51.614 8.6023s0.13862-2.5286-0.0335-6.0149c-14.176-12.714-32.536-19.763-51.58-19.792v-8.6023z" fill="#09804a" fill-rule="evenodd"/></svg>
